packages/homepage/src/assets/images/stripe.svg

<svg fill="none" height="41" viewBox="0 0 124 51" width="114" xmlns="http://www.w3.org/2000/svg"><path d="m96.031 16.7049c-.8447-1.7399-2.0929-3.051-3.9966-3.5805-2.9123-.8069-5.7112-.5169-8.2453 1.2607-.2395.1639-.479.3278-.8194.5673-.7187-1.9037-2.2694-1.8659-3.8579-1.7398-.2396.0252-.4791 0-.706 0-1.5381 0-3.0763 0-4.7026 0v1.059 35.3261c0 .29.0252.6052.0378.8952h9.8212c0-3.2654 0-6.5307 0-9.7204 1.4625.1387 2.8367.3908 4.2235.3908 4.7404-.0504 7.5897-2.2315 9.0017-6.7576.0631-.2017.1135-.3908.1639-.6051.9456-3.6436.933-7.3502.6052-11.0694-.2017-2.0928-.6052-4.1352-1.5255-6.0263zm-8.6109 15.2802c-.4413 2.1685-1.7272 2.7737-3.9083 1.9794 0-.5926 0-1.2103 0-1.8281 0-3.5301.0252-7.0728-.0126-10.6029 0-.6177.2143-.9329.7564-1.1094.3026-.1009.6052-.227.9204-.3278 1.349-.3908 2.2189.0504 2.3954 1.4246.4665 3.4797.5673 6.9972-.1513 10.4642zm-30.0562-17.9908c-.0378 2.4332-.0126 4.8665-.0126 7.3501-1.0968-.1387-2.055-.2773-3.0384-.3782-.4917-.0378-1.0086-.0126-1.5129.0504-2.0298.2648-2.3071.5926-2.3071 2.5972v15.961 1.0086c-3.2906 0-6.4803 0-9.7582 0 0-9.0774 0-18.1547 0-27.3204.2017-.0252.4286-.0756.643-.0756 2.1054 0 4.2235.0126 6.3415-.0126.5547-.0126.8699.1639 1.0969.6682.3025.643.6808 1.2481 1.0338 1.8911 1.8028-2.8619 3.6183-3.5931 6.6819-2.7736.5926.1639.8447.3908.8321 1.0338zm12.2419-9.06478c0 2.73581-2.2063 4.94212-4.9422 4.94212h-.0126c-.3908 0-.7942-.03782-1.1977-.13868-.8825-.22694-1.6389-.65559-2.2441-1.24814-.9203-.89513-1.5003-2.15588-1.5003-3.5553 0-2.47107 1.8155-4.526078 4.1983-4.8790871.0504-.0252149.1135-.0378254.1765-.0504329h1.0716c.0252.0126075.0505.0252172.0757.0378247 2.4584.2647563 4.3748 2.3449853 4.3748 4.8916953zm-9.8591 8.32088h9.7204v27.3708c-3.2527 0-6.455 0-9.7204 0 0-9.1656 0-18.243 0-27.3708zm63.1633 8.3462c-.328-2.4459-1.286-4.7026-3.164-6.4424-2.282-2.1181-5.106-2.5594-8.057-2.4207-5.749.2522-9.178 2.8115-10.59 7.9553-1.1471 4.1731-1.1471 8.4092-.025 12.6075 1.059 4.0092 3.618 6.5811 7.779 7.4132 3.706.7438 7.388.5799 11.031-.3404 2.106-.5295 2.106-.5295 2.106-2.6854 0-1.6516 0-3.3032 0-5.0304-.908.1639-1.69.3026-2.471.4413-2.307.3782-4.627.8699-6.985.5043-1.79-.2774-2.597-1.4751-2.332-3.4167h13.351c-.202-2.9753-.265-5.7994-.643-8.5856zm-12.897 3.2023c.138-1.5255.239-3.0006.428-4.4631.051-.416.29-.8573.568-1.1725.895-1.0338 2.521-.7564 2.798.5674.341 1.6263.391 3.3283.58 5.0682-1.588 0-2.887 0-4.374 0zm-76.6159-4.4253v10.8803c0 .29 0 .6051.0253.8951.1513 1.2103.5925 1.6264 1.8154 1.5507 1.0717-.063 2.1181-.2269 3.278-.353v6.9593c-3.3788.6178-6.7576 1.349-10.1868.5043-3.0384-.7312-4.7152-3.2401-4.7531-6.9971-.0504-4.4378-.0126-8.863-.0126-13.3009 0-.3152 0-.6303 0-1.0212-1.2229 0-2.3323 0-3.5301 0 0-2.0928 0-4.1226 0-6.2407h3.5175c.3656-1.828.7565-3.59309 1.0717-5.37074.1134-.59255.3025-.92034.9455-1.05903 2.5719-.57994 5.1313-1.22292 7.7914-1.8659v8.23267h5.2069c-.4413 2.1433-.8573 4.1731-1.286 6.2659-1.2733 0-2.5088 0-3.8452 0-.0126.353-.0379.6304-.0379.9203zm-14.549 12.7336c-.5169 4.9169-3.2779 7.5014-8.2452 7.9553-3.21493.29-6.34158-.1387-9.4178-1.0086-.264756-.0631-.642979-.4035-.655587-.6178-.05043-2.1559-.025215-4.3369-.025215-6.5811 1.575932.3278 3.051002.706 4.551292.933.93295.1513 1.90373.1891 2.82407.0504.47908-.0756 1.05903-.5421 1.29857-.996.32779-.6304.02521-1.3238-.57995-1.702-.80687-.5043-1.67679-.8951-2.50888-1.3364-.95817-.5169-1.97937-.9834-2.86189-1.6011-1.75244-1.2356-2.773642-2.9754-3.063613-5.1187-.025215-.2017-.1134672-.3908-.163897-.5925 0-.5295 0-1.0716 0-1.6011.151289-.7187.239542-1.4499.441261-2.1559.932949-3.341 3.378799-4.9926 6.593699-5.6356 3.41664-.6934 6.79544-.3908 10.11114.6682.5296.1765.7439.4161.7313.996-.0378 2.0172-.0126 4.0344-.0126 6.0264-1.6894-.3152-3.3158-.6304-4.9548-.8825-.6682-.1009-1.3994-.1513-2.0298.0252-.4538.1261-1.08421.6051-1.14725.996-.07564.4664.23955 1.1977.63035 1.5003.7187.5547 1.6138.8573 2.4207 1.2985 1.0464.5548 2.1558 1.0338 3.1014 1.7273 2.6223 1.8785 3.2779 4.6269 2.9627 7.6527z" fill="#fff"/></svg>

<svg width="114" height="41" viewBox="0 0 124 51" fill="none" xmlns="http://www.w3.org/2000/svg">
<path d="M96.031 16.7049C95.1863 14.965 93.9381 13.6539 92.0344 13.1244C89.1221 12.3175 86.3232 12.6075 83.7891 14.3851C83.5496 14.549 83.3101 14.7129 82.9697 14.9524C82.251 13.0487 80.7003 13.0865 79.1118 13.2126C78.8722 13.2378 78.6327 13.2126 78.4058 13.2126C76.8677 13.2126 75.3295 13.2126 73.7032 13.2126C73.7032 13.6287 73.7032 13.9565 73.7032 14.2716C73.7032 26.047 73.7032 37.8224 73.7032 49.5977C73.7032 49.8877 73.7284 50.2029 73.741 50.4929C77.0189 50.4929 80.2843 50.4929 83.5622 50.4929C83.5622 47.2275 83.5622 43.9622 83.5622 40.7725C85.0247 40.9112 86.3989 41.1633 87.7857 41.1633C92.5261 41.1129 95.3754 38.9318 96.7874 34.4057C96.8505 34.204 96.9009 34.0149 96.9513 33.8006C97.8969 30.157 97.8843 26.4504 97.5565 22.7312C97.3548 20.6384 96.9513 18.596 96.031 16.7049ZM87.4201 31.9851C86.9788 34.1536 85.6929 34.7588 83.5118 33.9645C83.5118 33.3719 83.5118 32.7542 83.5118 32.1364C83.5118 28.6063 83.537 25.0636 83.4992 21.5335C83.4992 20.9158 83.7135 20.6006 84.2556 20.4241C84.5582 20.3232 84.8608 20.1971 85.176 20.0963C86.525 19.7055 87.3949 20.1467 87.5714 21.5209C88.0379 25.0006 88.1387 28.5181 87.4201 31.9851ZM57.3639 13.9943C57.3261 16.4275 57.3513 18.8608 57.3513 21.3444C56.2545 21.2057 55.2963 21.0671 54.3129 20.9662C53.8212 20.9284 53.3043 20.9536 52.8 21.0166C50.7702 21.2814 50.4929 21.6092 50.4929 23.6138C50.4929 28.9341 50.4929 34.2545 50.4929 39.5748C50.4929 39.89 50.4929 40.2178 50.4929 40.5834C47.2023 40.5834 44.0126 40.5834 40.7347 40.5834C40.7347 31.506 40.7347 22.4287 40.7347 13.263C40.9364 13.2378 41.1633 13.1874 41.3777 13.1874C43.4831 13.1874 45.6012 13.2 47.7192 13.1748C48.2739 13.1622 48.5891 13.3387 48.8161 13.843C49.1186 14.486 49.4969 15.0911 49.8499 15.7341C51.6527 12.8722 53.4682 12.141 56.5318 12.9605C57.1244 13.1244 57.3765 13.3513 57.3639 13.9943ZM69.6058 4.92952C69.6058 7.66533 67.3995 9.87164 64.6636 9.87164H64.651C64.2602 9.87164 63.8568 9.83382 63.4533 9.73296C62.5708 9.50602 61.8144 9.07737 61.2092 8.48482C60.2889 7.58969 59.7089 6.32894 59.7089 4.92952C59.7089 2.45845 61.5244 0.403442 63.9072 0.0504329C63.9576 0.025218 64.0207 0.0126075 64.0837 0C64.4367 0 64.8023 0 65.1553 0C65.1805 0.0126075 65.2058 0.0252172 65.231 0.0378247C67.6894 0.302581 69.6058 2.38281 69.6058 4.92952ZM59.7467 13.2504C63.0121 13.2504 66.2017 13.2504 69.4671 13.2504C69.4671 22.3782 69.4671 31.4808 69.4671 40.6212C66.2144 40.6212 63.0121 40.6212 59.7467 40.6212C59.7467 31.4556 59.7467 22.3782 59.7467 13.2504ZM122.91 21.5966C122.582 19.1507 121.624 16.894 119.746 15.1542C117.464 13.0361 114.64 12.5948 111.689 12.7335C105.94 12.9857 102.511 15.545 101.099 20.6888C99.9519 24.8619 99.9519 29.098 101.074 33.2963C102.133 37.3055 104.692 39.8774 108.853 40.7095C112.559 41.4533 116.241 41.2894 119.884 40.3691C121.99 39.8396 121.99 39.8396 121.99 37.6837C121.99 36.0321 121.99 34.3805 121.99 32.6533C121.082 32.8172 120.3 32.9559 119.519 33.0946C117.212 33.4728 114.892 33.9645 112.534 33.5989C110.744 33.3215 109.937 32.1238 110.202 30.1822C114.539 30.1822 118.901 30.1822 123.553 30.1822C123.351 27.2069 123.288 24.3828 122.91 21.5966ZM110.013 24.7989C110.151 23.2734 110.252 21.7983 110.441 20.3358C110.492 19.9198 110.731 19.4785 111.009 19.1633C111.904 18.1295 113.53 18.4069 113.807 19.7307C114.148 21.357 114.198 23.059 114.387 24.7989C112.799 24.7989 111.5 24.7989 110.013 24.7989ZM33.3971 20.3736C33.3971 24.0046 33.3971 27.6355 33.3971 31.2539C33.3971 31.5439 33.3971 31.859 33.4224 32.149C33.5737 33.3593 34.0149 33.7754 35.2378 33.6997C36.3095 33.6367 37.3559 33.4728 38.5158 33.3467C38.5158 35.6917 38.5158 37.9484 38.5158 40.306C35.137 40.9238 31.7582 41.655 28.329 40.8103C25.2906 40.0791 23.6138 37.5702 23.5759 33.8132C23.5255 29.3754 23.5633 24.9502 23.5633 20.5123C23.5633 20.1971 23.5633 19.882 23.5633 19.4911C22.3404 19.4911 21.231 19.4911 20.0332 19.4911C20.0332 17.3983 20.0332 15.3685 20.0332 13.2504C21.1805 13.2504 22.3278 13.2504 23.5507 13.2504C23.9163 11.4224 24.3072 9.65731 24.6224 7.87966C24.7358 7.28711 24.9249 6.95932 25.5679 6.82063C28.1398 6.24069 30.6992 5.59771 33.3593 4.95473C33.3593 7.71576 33.3593 10.4011 33.3593 13.1874C35.1244 13.1874 36.8012 13.1874 38.5662 13.1874C38.1249 15.3307 37.7089 17.3605 37.2802 19.4533C36.0069 19.4533 34.7714 19.4533 33.435 19.4533C33.4224 19.8063 33.3971 20.0837 33.3971 20.3736ZM18.8481 33.1072C18.3312 38.0241 15.5702 40.6086 10.6029 41.0625C7.38797 41.3525 4.26132 40.9238 1.1851 40.0539C0.920344 39.9908 0.542121 39.6504 0.529513 39.4361C0.479083 37.2802 0.504298 35.0992 0.504298 32.855C2.08023 33.1828 3.5553 33.561 5.05559 33.788C5.98854 33.9393 6.95932 33.9771 7.87966 33.8384C8.35874 33.7628 8.93869 33.2963 9.17823 32.8424C9.50602 32.212 9.20344 31.5186 8.59828 31.1404C7.79141 30.6361 6.92149 30.2453 6.0894 29.804C5.13123 29.2871 4.11003 28.8206 3.22751 28.2029C1.47507 26.9673 0.453868 25.2275 0.163897 23.0842C0.138682 22.8825 0.0504298 22.6934 0 22.4917C0 21.9622 0 21.4201 0 20.8906C0.151289 20.1719 0.239542 19.4407 0.441261 18.7347C1.37421 15.3937 3.82006 13.7421 7.03496 13.0991C10.4516 12.4057 13.8304 12.7083 17.1461 13.7673C17.6757 13.9438 17.89 14.1834 17.8774 14.7633C17.8396 16.7805 17.8648 18.7977 17.8648 20.7897C16.1754 20.4745 14.549 20.1593 12.91 19.9072C12.2418 19.8063 11.5106 19.7559 10.8802 19.9324C10.4264 20.0585 9.79599 20.5375 9.73295 20.9284C9.65731 21.3948 9.9725 22.1261 10.3633 22.4287C11.082 22.9834 11.9771 23.286 12.784 23.7272C13.8304 24.282 14.9398 24.761 15.8854 25.4545C18.5077 27.333 19.1633 30.0814 18.8481 33.1072Z" fill="white"/>
</svg>
